dist/assets/group-776.svg

<svg width="25" height="53" viewBox="0 0 25 53" fill="none" xmlns="http://www.w3.org/2000/svg">
<ellipse cx="12.5043" cy="26.3783" rx="11.85" ry="26.0565" fill="url(#paint0_linear_216_974)"/>
<path d="M18.4665 18.182C18.7005 19.0735 18.6692 20.1349 18.3843 20.9519L12.1296 38.899C11.8716 39.6391 11.4469 40.0164 11.0126 39.8331C10.5873 39.6532 10.2501 38.9715 10.1331 38.0547L9.2076 30.812L9.11121 30.0587L8.8627 29.4985L6.47293 24.1148C6.17033 23.4335 6.07046 22.4505 6.21227 21.5507C6.35262 20.6612 6.70464 20.0158 7.13865 19.8907L17.3345 16.9536C17.7987 16.8196 18.2324 17.2906 18.4665 18.182Z" fill="white"/>
<path d="M9.20764 30.812L10.1331 38.0547C10.2501 38.9716 10.5873 39.6532 11.0126 39.8331C11.4469 40.0165 11.8717 39.6391 12.1296 38.899L18.3843 20.9519C18.6692 20.1349 18.7006 19.0735 18.4665 18.182L9.11125 30.0587L9.20764 30.812Z" fill="white"/>
<path d="M12.9183 25.2256C13.0135 25.5881 12.9571 26.052 12.792 26.2616L9.20769 30.812L9.1113 30.0586L8.86279 29.4984L12.4471 24.948C12.6122 24.7385 12.8231 24.8631 12.9183 25.2256Z" fill="url(#paint1_linear_216_974)"/>
<path d="M9.2076 30.8119L12.792 26.2615C12.957 26.052 13.0134 25.5881 12.9182 25.2256L9.11122 30.0586L9.2076 30.8119Z" fill="url(#paint2_linear_216_974)"/>
<defs>
<linearGradient id="paint0_linear_216_974" x1="17.4632" y1="1.78387" x2="-14.8959" y2="38.8648" gradientUnits="userSpaceOnUse">
<stop stop-color="#747DEF"/>
<stop offset="1" stop-color="#5E3BE1"/>
</linearGradient>
<linearGradient id="paint1_linear_216_974" x1="11.6265" y1="26.039" x2="12.6822" y2="27.0018" gradientUnits="userSpaceOnUse">
<stop stop-color="#747DEF"/>
<stop offset="1" stop-color="#5E3BE1"/>
</linearGradient>
<linearGradient id="paint2_linear_216_974" x1="11.794" y1="26.6773" x2="12.3259" y2="27.1275" gradientUnits="userSpaceOnUse">
<stop stop-color="#747DEF"/>
<stop offset="1" stop-color="#5E3BE1"/>
</linearGradient>
</defs>
</svg>

<svg width="25" height="53" fill="none" xmlns="http://www.w3.org/2000/svg"><ellipse cx="12.504" cy="26.378" rx="11.85" ry="26.056" fill="url(#paint0_linear_216_974)"/><path d="M18.466 18.182c.235.892.203 1.953-.082 2.77L12.13 38.899c-.258.74-.683 1.117-1.117.934-.426-.18-.763-.861-.88-1.778l-.925-7.243-.097-.753-.248-.56-2.39-5.384c-.303-.681-.403-1.664-.26-2.564.14-.89.492-1.535.926-1.66l10.195-2.937c.465-.134.898.337 1.133 1.228z" fill="#fff"/><path d="M9.208 30.812l.925 7.243c.117.917.454 1.598.88 1.778.434.184.859-.194 1.117-.934l6.254-17.947c.285-.817.317-1.879.082-2.77L9.111 30.059l.097.753z" fill="#fff"/><path d="M12.918 25.226c.096.362.04.826-.126 1.036l-3.584 4.55-.097-.753-.248-.56 3.584-4.551c.165-.21.376-.085.471.278z" fill="url(#paint1_linear_216_974)"/><path d="M9.208 30.812l3.584-4.55c.165-.21.221-.674.126-1.036l-3.807 4.833.097.753z" fill="url(#paint2_linear_216_974)"/><defs><linearGradient id="paint0_linear_216_974" x1="17.463" y1="1.784" x2="-14.896" y2="38.865" gradientUnits="userSpaceOnUse"><stop stop-color="#747DEF"/><stop offset="1" stop-color="#5E3BE1"/></linearGradient><linearGradient id="paint1_linear_216_974" x1="11.627" y1="26.039" x2="12.682" y2="27.002" gradientUnits="userSpaceOnUse"><stop stop-color="#747DEF"/><stop offset="1" stop-color="#5E3BE1"/></linearGradient><linearGradient id="paint2_linear_216_974" x1="11.794" y1="26.677" x2="12.326" y2="27.128" gradientUnits="userSpaceOnUse"><stop stop-color="#747DEF"/><stop offset="1" stop-color="#5E3BE1"/></linearGradient></defs></svg>
